src/icons/eye.svg

<svg xmlns="http://www.w3.org/2000/svg" width="512" height="512" viewBox="0 0 512 512">
    <path d="M256 152.4c-62.2 0-110.6 37.1-170 97.1 51.1 51.4 94.1 97.1 170 97.1s131.6-58 170-96c-39.3-44.7-95-98.2-170-98.2zm0 166.4c-37.5 0-68-31.1-68-69.3 0-38.2 30.5-69.3 68-69.3s68 31.1 68 69.3c0 38.3-30.5 69.3-68 69.3z"/>
    <path d="M256 175.8c0-5.9 2.2-11.5 5.7-15.7-1.9-.3-3.8-.4-5.7-.4-21.9 0-39.7 18.2-39.7 40.5s17.8 40.5 39.7 40.5c21.9 0 39.7-18.2 39.7-40.5 0-1.7-.1-3.5-.3-5.2-4.1 3.3-9.4 5.2-15 5.2-13.6-.2-24.4-11-24.4-24.4z"/>
</svg>

<?xml version="1.0" encoding="UTF-8"?>
<svg width="512px" height="512px" viewBox="0 0 512 512" version="1.1" xmlns="http://www.w3.org/2000/svg" xmlns:xlink="http://www.w3.org/1999/xlink">
    <!-- Generator: Sketch 62 (91390) - https://sketch.com -->
    <title>eye</title>
    <desc>Created with Sketch.</desc>
    <g id="eye" stroke="none" stroke-width="1" fill="none" fill-rule="evenodd">
        <path d="M256,152.4 C193.8,152.4 145.4,189.5 86,249.5 C137.1,300.9 180.1,346.6 256,346.6 C331.9,346.6 387.6,288.6 426,250.6 C386.7,205.9 331,152.4 256,152.4 Z M256,318.8 C218.5,318.8 188,287.7 188,249.5 C188,211.3 218.5,180.2 256,180.2 C293.5,180.2 324,211.3 324,249.5 C324,287.8 293.5,318.8 256,318.8 Z" id="Shape" fill="#000000" fill-rule="nonzero"></path>
        <path d="M256,175.8 C256,169.9 258.2,164.3 261.7,160.1 C259.8,159.8 257.9,159.7 256,159.7 C234.1,159.7 216.3,177.9 216.3,200.2 C216.3,222.5 234.1,240.7 256,240.7 C277.9,240.7 295.7,222.5 295.7,200.2 C295.7,198.5 295.6,196.7 295.4,195 C291.3,198.3 286,200.2 280.4,200.2 C266.8,200 256,189.2 256,175.8 L256,175.8 Z" id="Path" fill="#000000" fill-rule="nonzero"></path>
    </g>
</svg>
